X: 32225
T: Phoenix, The
R: reel
M: 4/4
K: Dmajor
de|f2df edcA|BAGB AGFA|f2df edcA|BAGB A2de|
f2df edcA|BAGB AGFE|Dddc defd|edce d2:|
cd|:B3A Bcde|f2df edcA|B3A Bcde|f2ef d2cd|
B2Fd B2Fd|BFBd cBAc|BBBA Bcde|1 fedc B3A:|2 fedc d2||

